public/images/icons/services/maha-mrityunjay.svg

<svg xmlns="http://www.w3.org/2000/svg" fill="none" stroke="#6f4278" stroke-linecap="round" stroke-linejoin="round" stroke-width="2" viewBox="0 0 64 64"><path d="M18 38c-6 0-10-4-10-10s6-10 12-10 10 4 10 8-4 8-8 10"/><path d="M22 36c4 0 10-4 10-10s-4-10-8-10m8 10c2-4 6-8 10-8 6 0 10 4 10 10s-4 10-10 10c-4 0-6-2-6-4m0-16c0-4 2-8 6-8s6 4 4 8M42 6c2-2 6-2 8 0"/><circle cx="46" cy="3" r="1.5"/><path d="M18 38c0 6 4 10 10 10s10-4 12-8"/></svg>

<svg xmlns="http://www.w3.org/2000/svg" viewBox="0 0 64 64" fill="none" stroke="#6F4278" stroke-width="2" stroke-linecap="round" stroke-linejoin="round">
  <!-- Om symbol (ॐ) -->
  <!-- Main body curve - bottom part -->
  <path d="M18,38 C12,38 8,34 8,28 C8,22 14,18 20,18 C26,18 30,22 30,26 C30,30 26,34 22,36"/>
  <!-- Upper loop -->
  <path d="M22,36 C26,36 32,32 32,26 C32,20 28,16 24,16"/>
  <!-- Right side hook -->
  <path d="M32,26 C34,22 38,18 42,18 C48,18 52,22 52,28 C52,34 48,38 42,38 C38,38 36,36 36,34"/>
  <!-- Top curve (the 3-like shape top) -->
  <path d="M36,18 C36,14 38,10 42,10 C46,10 48,14 46,18"/>
  <!-- Chandrabindu - crescent -->
  <path d="M42,6 C44,4 48,4 50,6" />
  <!-- Dot above -->
  <circle cx="46" cy="3" r="1.5"/>
  <!-- Tail swoosh at bottom -->
  <path d="M18,38 C18,44 22,48 28,48 C34,48 38,44 40,40"/>
</svg>
